images/3234284.svg

<?xml version="1.0" encoding="UTF-8"?>
<svg xmlns="http://www.w3.org/2000/svg" xmlns:xlink="http://www.w3.org/1999/xlink" width="300pt" height="300pt" viewBox="0 0 300 300" version="1.1">
<defs>
<g>
<symbol overflow="visible" id="glyph0-0">
<path style="stroke:none;" d="M 0.546875 1.9375 L 0.546875 -7.75 L 6.046875 -7.75 L 6.046875 1.9375 Z M 1.171875 1.328125 L 5.4375 1.328125 L 5.4375 -7.140625 L 1.171875 -7.140625 Z M 1.171875 1.328125 "/>
</symbol>
<symbol overflow="visible" id="glyph0-1">
<path style="stroke:none;" d="M 1.078125 -8.015625 L 2.546875 -8.015625 L 6.09375 -1.3125 L 6.09375 -8.015625 L 7.15625 -8.015625 L 7.15625 0 L 5.6875 0 L 2.125 -6.703125 L 2.125 0 L 1.078125 0 Z M 1.078125 -8.015625 "/>
</symbol>
<symbol overflow="visible" id="glyph0-2">
<path style="stroke:none;" d="M 1.078125 -8.015625 L 2.171875 -8.015625 L 2.171875 -4.734375 L 6.109375 -4.734375 L 6.109375 -8.015625 L 7.1875 -8.015625 L 7.1875 0 L 6.109375 0 L 6.109375 -3.8125 L 2.171875 -3.8125 L 2.171875 0 L 1.078125 0 Z M 1.078125 -8.015625 "/>
</symbol>
</g>
</defs>
<g id="surface54157">
<rect x="0" y="0" width="300" height="300" style="fill:rgb(100%,100%,100%);fill-opacity:1;stroke:none;"/>
<path style="fill:none;stroke-width:1.2;stroke-linecap:butt;stroke-linejoin:miter;stroke:rgb(0%,0%,0%);stroke-opacity:1;stroke-miterlimit:10;" d="M 216.933594 227.472656 L 190.949219 237.433594 "/>
<path style="fill:none;stroke-width:1.2;stroke-linecap:butt;stroke-linejoin:miter;stroke:rgb(0%,0%,0%);stroke-opacity:1;stroke-miterlimit:10;" d="M 211.992188 222.355469 L 191.207031 230.324219 "/>
<path style="fill:none;stroke-width:1.2;stroke-linecap:butt;stroke-linejoin:miter;stroke:rgb(0%,0%,0%);stroke-opacity:1;stroke-miterlimit:10;" d="M 221.300781 199.988281 L 216.933594 227.472656 "/>
<path style="fill:none;stroke-width:1.2;stroke-linecap:butt;stroke-linejoin:miter;stroke:rgb(0%,0%,0%);stroke-opacity:1;stroke-miterlimit:10;" d="M 190.949219 237.433594 L 169.332031 219.910156 "/>
<path style="fill:none;stroke-width:1.2;stroke-linecap:butt;stroke-linejoin:miter;stroke:rgb(0%,0%,0%);stroke-opacity:1;stroke-miterlimit:10;" d="M 169.332031 219.910156 L 173.695312 192.425781 "/>
<path style="fill:none;stroke-width:1.2;stroke-linecap:butt;stroke-linejoin:miter;stroke:rgb(0%,0%,0%);stroke-opacity:1;stroke-miterlimit:10;" d="M 176.234375 218.1875 L 179.726562 196.203125 "/>
<path style="fill:none;stroke-width:1.2;stroke-linecap:butt;stroke-linejoin:miter;stroke:rgb(0%,0%,0%);stroke-opacity:1;stroke-miterlimit:10;" d="M 173.695312 192.425781 L 199.683594 182.464844 "/>
<path style="fill:none;stroke-width:1.2;stroke-linecap:butt;stroke-linejoin:miter;stroke:rgb(0%,0%,100%);stroke-opacity:1;stroke-miterlimit:10;" d="M 152.078125 174.902344 L 162.886719 183.664062 "/>
<path style="fill:none;stroke-width:1.2;stroke-linecap:butt;stroke-linejoin:miter;stroke:rgb(0%,0%,0%);stroke-opacity:1;stroke-miterlimit:10;" d="M 162.886719 183.664062 L 173.695312 192.425781 "/>
<path style="fill:none;stroke-width:1.2;stroke-linecap:butt;stroke-linejoin:miter;stroke:rgb(0%,0%,0%);stroke-opacity:1;stroke-miterlimit:10;" d="M 199.683594 182.464844 L 221.300781 199.988281 "/>
<path style="fill:none;stroke-width:1.2;stroke-linecap:butt;stroke-linejoin:miter;stroke:rgb(0%,0%,0%);stroke-opacity:1;stroke-miterlimit:10;" d="M 197.722656 189.304688 L 215.015625 203.324219 "/>
<path style="fill:none;stroke-width:1.2;stroke-linecap:butt;stroke-linejoin:miter;stroke:rgb(0%,0%,0%);stroke-opacity:1;stroke-miterlimit:10;" d="M 199.683594 182.464844 L 204.046875 154.980469 "/>
<path style="fill:none;stroke-width:1.2;stroke-linecap:butt;stroke-linejoin:miter;stroke:rgb(0%,0%,0%);stroke-opacity:1;stroke-miterlimit:10;" d="M 204.046875 154.980469 L 193.238281 146.21875 "/>
<path style="fill:none;stroke-width:1.2;stroke-linecap:butt;stroke-linejoin:miter;stroke:rgb(0%,0%,100%);stroke-opacity:1;stroke-miterlimit:10;" d="M 193.238281 146.21875 L 182.429688 137.457031 "/>
<path style="fill:none;stroke-width:1.2;stroke-linecap:butt;stroke-linejoin:miter;stroke:rgb(0%,0%,0%);stroke-opacity:1;stroke-miterlimit:10;" d="M 197.761719 158.316406 L 189.117188 151.304688 "/>
<path style="fill:none;stroke-width:1.2;stroke-linecap:butt;stroke-linejoin:miter;stroke:rgb(0%,0%,100%);stroke-opacity:1;stroke-miterlimit:10;" d="M 189.117188 151.304688 L 180.46875 144.296875 "/>
<path style="fill:none;stroke-width:1.2;stroke-linecap:butt;stroke-linejoin:miter;stroke:rgb(0%,0%,0%);stroke-opacity:1;stroke-miterlimit:10;" d="M 204.046875 154.980469 L 217.039062 150 "/>
<path style="fill:none;stroke-width:1.2;stroke-linecap:butt;stroke-linejoin:miter;stroke:rgb(0%,0%,100%);stroke-opacity:1;stroke-miterlimit:10;" d="M 217.039062 150 L 230.03125 145.019531 "/>
<path style="fill:none;stroke-width:1.2;stroke-linecap:butt;stroke-linejoin:miter;stroke:rgb(0%,0%,100%);stroke-opacity:1;stroke-miterlimit:10;" d="M 182.429688 137.457031 L 169.4375 142.4375 "/>
<path style="fill:none;stroke-width:1.2;stroke-linecap:butt;stroke-linejoin:miter;stroke:rgb(0%,0%,0%);stroke-opacity:1;stroke-miterlimit:10;" d="M 169.4375 142.4375 L 156.445312 147.417969 "/>
<path style=" stroke:none;fill-rule:nonzero;fill:rgb(100%,100%,100%);fill-opacity:1;" d="M 178.429688 130.957031 L 186.429688 130.957031 L 186.429688 143.957031 L 178.429688 143.957031 Z M 178.429688 130.957031 "/>
<g style="fill:rgb(0%,0%,100%);fill-opacity:1;">
  <use xlink:href="#glyph0-1" x="178.429688" y="140.858398"/>
</g>
<path style="fill:none;stroke-width:1.2;stroke-linecap:butt;stroke-linejoin:miter;stroke:rgb(0%,0%,0%);stroke-opacity:1;stroke-miterlimit:10;" d="M 156.445312 147.417969 L 154.261719 161.160156 "/>
<path style="fill:none;stroke-width:1.2;stroke-linecap:butt;stroke-linejoin:miter;stroke:rgb(0%,0%,100%);stroke-opacity:1;stroke-miterlimit:10;" d="M 154.261719 161.160156 L 152.078125 174.902344 "/>
<path style="fill:none;stroke-width:1.2;stroke-linecap:butt;stroke-linejoin:miter;stroke:rgb(0%,0%,0%);stroke-opacity:1;stroke-miterlimit:10;" d="M 162.472656 151.195312 L 160.726562 162.1875 "/>
<path style="fill:none;stroke-width:1.2;stroke-linecap:butt;stroke-linejoin:miter;stroke:rgb(0%,0%,100%);stroke-opacity:1;stroke-miterlimit:10;" d="M 160.726562 162.1875 L 158.980469 173.183594 "/>
<path style="fill:none;stroke-width:1.2;stroke-linecap:butt;stroke-linejoin:miter;stroke:rgb(0%,0%,0%);stroke-opacity:1;stroke-miterlimit:10;" d="M 156.445312 147.417969 L 134.824219 129.894531 "/>
<path style=" stroke:none;fill-rule:nonzero;fill:rgb(100%,100%,100%);fill-opacity:1;" d="M 148.078125 168.402344 L 156.078125 168.402344 L 156.078125 181.402344 L 148.078125 181.402344 Z M 148.078125 168.402344 "/>
<g style="fill:rgb(0%,0%,100%);fill-opacity:1;">
  <use xlink:href="#glyph0-1" x="148.078125" y="178.303711"/>
</g>
<path style="fill:none;stroke-width:1.2;stroke-linecap:butt;stroke-linejoin:miter;stroke:rgb(0%,0%,0%);stroke-opacity:1;stroke-miterlimit:10;" d="M 134.824219 129.894531 L 139.191406 102.410156 "/>
<path style="fill:none;stroke-width:1.2;stroke-linecap:butt;stroke-linejoin:miter;stroke:rgb(0%,0%,0%);stroke-opacity:1;stroke-miterlimit:10;" d="M 128.792969 126.121094 L 132.285156 104.132812 "/>
<path style="fill:none;stroke-width:1.2;stroke-linecap:butt;stroke-linejoin:miter;stroke:rgb(0%,0%,0%);stroke-opacity:1;stroke-miterlimit:10;" d="M 108.839844 139.855469 L 134.824219 129.894531 "/>
<path style="fill:none;stroke-width:1.2;stroke-linecap:butt;stroke-linejoin:miter;stroke:rgb(0%,0%,0%);stroke-opacity:1;stroke-miterlimit:10;" d="M 139.191406 102.410156 L 117.570312 84.886719 "/>
<path style="fill:none;stroke-width:1.2;stroke-linecap:butt;stroke-linejoin:miter;stroke:rgb(0%,0%,0%);stroke-opacity:1;stroke-miterlimit:10;" d="M 117.570312 84.886719 L 91.585938 94.847656 "/>
<path style="fill:none;stroke-width:1.2;stroke-linecap:butt;stroke-linejoin:miter;stroke:rgb(0%,0%,0%);stroke-opacity:1;stroke-miterlimit:10;" d="M 117.316406 92 L 96.527344 99.96875 "/>
<path style="fill:none;stroke-width:1.2;stroke-linecap:butt;stroke-linejoin:miter;stroke:rgb(0%,0%,0%);stroke-opacity:1;stroke-miterlimit:10;" d="M 91.585938 94.847656 L 87.21875 122.332031 "/>
<path style="fill:none;stroke-width:1.2;stroke-linecap:butt;stroke-linejoin:miter;stroke:rgb(0%,0%,0%);stroke-opacity:1;stroke-miterlimit:10;" d="M 87.21875 122.332031 L 108.839844 139.855469 "/>
<path style="fill:none;stroke-width:1.2;stroke-linecap:butt;stroke-linejoin:miter;stroke:rgb(0%,0%,0%);stroke-opacity:1;stroke-miterlimit:10;" d="M 93.503906 119 L 110.800781 133.015625 "/>
<path style="fill:none;stroke-width:1.2;stroke-linecap:butt;stroke-linejoin:miter;stroke:rgb(0%,0%,0%);stroke-opacity:1;stroke-miterlimit:10;" d="M 87.21875 122.332031 L 61.234375 132.292969 "/>
<path style="fill:none;stroke-width:1.2;stroke-linecap:butt;stroke-linejoin:miter;stroke:rgb(0%,0%,0%);stroke-opacity:1;stroke-miterlimit:10;" d="M 61.234375 132.292969 L 48.242188 137.277344 "/>
<path style="fill:none;stroke-width:1.2;stroke-linecap:butt;stroke-linejoin:miter;stroke:rgb(0%,0%,100%);stroke-opacity:1;stroke-miterlimit:10;" d="M 48.242188 137.277344 L 35.25 142.257812 "/>
<path style="fill:none;stroke-width:1.2;stroke-linecap:butt;stroke-linejoin:miter;stroke:rgb(0%,0%,0%);stroke-opacity:1;stroke-miterlimit:10;" d="M 56.292969 127.175781 L 45.898438 131.160156 "/>
<path style="fill:none;stroke-width:1.2;stroke-linecap:butt;stroke-linejoin:miter;stroke:rgb(0%,0%,100%);stroke-opacity:1;stroke-miterlimit:10;" d="M 45.898438 131.160156 L 35.503906 135.144531 "/>
<path style="fill:none;stroke-width:1.2;stroke-linecap:butt;stroke-linejoin:miter;stroke:rgb(0%,0%,0%);stroke-opacity:1;stroke-miterlimit:10;" d="M 60.980469 139.40625 L 50.585938 143.390625 "/>
<path style="fill:none;stroke-width:1.2;stroke-linecap:butt;stroke-linejoin:miter;stroke:rgb(0%,0%,100%);stroke-opacity:1;stroke-miterlimit:10;" d="M 50.585938 143.390625 L 40.191406 147.375 "/>
<path style=" stroke:none;fill-rule:nonzero;fill:rgb(100%,100%,100%);fill-opacity:1;" d="M 27.25 135.757812 L 35.25 135.757812 L 35.25 148.757812 L 27.25 148.757812 Z M 27.25 135.757812 "/>
<g style="fill:rgb(0%,0%,100%);fill-opacity:1;">
  <use xlink:href="#glyph0-1" x="27.25" y="145.65918"/>
</g>
<path style="fill:none;stroke-width:1.2;stroke-linecap:butt;stroke-linejoin:miter;stroke:rgb(0%,0%,100%);stroke-opacity:1;stroke-miterlimit:10;" d="M 230.03125 145.019531 L 232.214844 131.277344 "/>
<path style="fill:none;stroke-width:1.2;stroke-linecap:butt;stroke-linejoin:miter;stroke:rgb(0%,0%,0%);stroke-opacity:1;stroke-miterlimit:10;" d="M 232.214844 131.277344 L 234.398438 117.535156 "/>
<path style=" stroke:none;fill-rule:nonzero;fill:rgb(100%,100%,100%);fill-opacity:1;" d="M 222.03125 138.519531 L 239.03125 138.519531 L 239.03125 151.519531 L 222.03125 151.519531 Z M 222.03125 138.519531 "/>
<g style="fill:rgb(0%,0%,100%);fill-opacity:1;">
  <use xlink:href="#glyph0-1" x="222.03125" y="148.420898"/>
  <use xlink:href="#glyph0-2" x="230.014648" y="148.420898"/>
</g>
<path style="fill:none;stroke-width:1.2;stroke-linecap:butt;stroke-linejoin:miter;stroke:rgb(0%,0%,0%);stroke-opacity:1;stroke-miterlimit:10;" d="M 234.398438 117.535156 L 260.382812 107.574219 "/>
<path style="fill:none;stroke-width:1.2;stroke-linecap:butt;stroke-linejoin:miter;stroke:rgb(0%,0%,0%);stroke-opacity:1;stroke-miterlimit:10;" d="M 234.652344 110.425781 L 255.441406 102.457031 "/>
<path style="fill:none;stroke-width:1.2;stroke-linecap:butt;stroke-linejoin:miter;stroke:rgb(0%,0%,0%);stroke-opacity:1;stroke-miterlimit:10;" d="M 212.78125 100.011719 L 234.398438 117.535156 "/>
<path style="fill:none;stroke-width:1.2;stroke-linecap:butt;stroke-linejoin:miter;stroke:rgb(0%,0%,0%);stroke-opacity:1;stroke-miterlimit:10;" d="M 260.382812 107.574219 L 264.75 80.089844 "/>
<path style="fill:none;stroke-width:1.2;stroke-linecap:butt;stroke-linejoin:miter;stroke:rgb(0%,0%,0%);stroke-opacity:1;stroke-miterlimit:10;" d="M 264.75 80.089844 L 253.941406 71.328125 "/>
<path style="fill:none;stroke-width:1.2;stroke-linecap:butt;stroke-linejoin:miter;stroke:rgb(0%,0%,100%);stroke-opacity:1;stroke-miterlimit:10;" d="M 253.941406 71.328125 L 243.128906 62.566406 "/>
<path style="fill:none;stroke-width:1.2;stroke-linecap:butt;stroke-linejoin:miter;stroke:rgb(0%,0%,0%);stroke-opacity:1;stroke-miterlimit:10;" d="M 258.464844 83.425781 L 249.816406 76.414062 "/>
<path style="fill:none;stroke-width:1.2;stroke-linecap:butt;stroke-linejoin:miter;stroke:rgb(0%,0%,100%);stroke-opacity:1;stroke-miterlimit:10;" d="M 249.816406 76.414062 L 241.167969 69.40625 "/>
<path style="fill:none;stroke-width:1.2;stroke-linecap:butt;stroke-linejoin:miter;stroke:rgb(0%,0%,100%);stroke-opacity:1;stroke-miterlimit:10;" d="M 243.128906 62.566406 L 230.136719 67.546875 "/>
<path style="fill:none;stroke-width:1.2;stroke-linecap:butt;stroke-linejoin:miter;stroke:rgb(0%,0%,0%);stroke-opacity:1;stroke-miterlimit:10;" d="M 230.136719 67.546875 L 217.144531 72.527344 "/>
<path style=" stroke:none;fill-rule:nonzero;fill:rgb(100%,100%,100%);fill-opacity:1;" d="M 239.128906 56.066406 L 247.128906 56.066406 L 247.128906 69.066406 L 239.128906 69.066406 Z M 239.128906 56.066406 "/>
<g style="fill:rgb(0%,0%,100%);fill-opacity:1;">
  <use xlink:href="#glyph0-1" x="239.128906" y="65.967773"/>
</g>
<path style="fill:none;stroke-width:1.2;stroke-linecap:butt;stroke-linejoin:miter;stroke:rgb(0%,0%,0%);stroke-opacity:1;stroke-miterlimit:10;" d="M 217.144531 72.527344 L 212.78125 100.011719 "/>
<path style="fill:none;stroke-width:1.2;stroke-linecap:butt;stroke-linejoin:miter;stroke:rgb(0%,0%,0%);stroke-opacity:1;stroke-miterlimit:10;" d="M 223.175781 76.304688 L 219.683594 98.289062 "/>
</g>
</svg>

<svg xmlns="http://www.w3.org/2000/svg" xmlns:xlink="http://www.w3.org/1999/xlink" width="300pt" height="300pt" viewBox="0 0 300 300"><defs><symbol overflow="visible"><path d="M.547 1.938V-7.75h5.5v9.688zm.625-.61h4.266v-8.47H1.171zm0 0"/></symbol><symbol overflow="visible" id="a"><path d="M1.078-8.016h1.47l3.546 6.704v-6.704h1.062V0H5.688L2.124-6.703V0H1.078zm0 0"/></symbol><symbol overflow="visible" id="b"><path d="M1.078-8.016h1.094v3.282H6.11v-3.282h1.077V0H6.11v-3.813H2.17V0H1.078zm0 0"/></symbol></defs><g><path fill="#fff" d="M0 0h300v300H0z"/><path d="M216.934 227.473l-25.985 9.96M211.992 222.355l-20.785 7.97M221.3 199.988l-4.366 27.485M190.95 237.434L169.33 219.91M169.332 219.91l4.363-27.484M176.234 218.188l3.493-21.985M173.695 192.426l25.99-9.96" stroke-width="1.2" stroke="#000" stroke-miterlimit="10" fill="none"/><path d="M152.078 174.902l10.81 8.762" stroke-width="1.2" stroke="#00f" stroke-miterlimit="10" fill="none"/><path d="M162.887 183.664l10.808 8.762M199.684 182.465l21.617 17.523M197.723 189.305l17.293 14.02M199.684 182.465l4.363-27.485M204.047 154.98l-10.81-8.76" stroke-width="1.2" stroke="#000" stroke-miterlimit="10" fill="none"/><path d="M193.238 146.22l-10.808-8.763" stroke-width="1.2" stroke="#00f" stroke-miterlimit="10" fill="none"/><path d="M197.762 158.316l-8.645-7.01" stroke-width="1.2" stroke="#000" stroke-miterlimit="10" fill="none"/><path d="M189.117 151.305l-8.648-7.008" stroke-width="1.2" stroke="#00f" stroke-miterlimit="10" fill="none"/><path d="M204.047 154.98L217.04 150" stroke-width="1.2" stroke="#000" stroke-miterlimit="10" fill="none"/><path d="M217.04 150l12.99-4.98M182.43 137.457l-12.993 4.98" stroke-width="1.2" stroke="#00f" stroke-miterlimit="10" fill="none"/><path d="M169.438 142.438l-12.993 4.98" stroke-width="1.2" stroke="#000" stroke-miterlimit="10" fill="none"/><path d="M178.43 130.957h8v13h-8zm0 0" fill="#fff"/><use xlink:href="#a" x="178.43" y="140.858" fill="#00f"/><path d="M156.445 147.418l-2.183 13.742" stroke-width="1.2" stroke="#000" stroke-miterlimit="10" fill="none"/><path d="M154.262 161.16l-2.184 13.742" stroke-width="1.2" stroke="#00f" stroke-miterlimit="10" fill="none"/><path d="M162.473 151.195l-1.746 10.993" stroke-width="1.2" stroke="#000" stroke-miterlimit="10" fill="none"/><path d="M160.727 162.188l-1.747 10.996" stroke-width="1.2" stroke="#00f" stroke-miterlimit="10" fill="none"/><path d="M156.445 147.418l-21.62-17.523" stroke-width="1.2" stroke="#000" stroke-miterlimit="10" fill="none"/><path d="M148.078 168.402h8v13h-8zm0 0" fill="#fff"/><use xlink:href="#a" x="148.078" y="178.304" fill="#00f"/><path d="M134.824 129.895l4.367-27.485M128.793 126.12l3.492-21.987M108.84 139.855l25.984-9.96M139.19 102.41l-21.62-17.523M117.57 84.887l-25.984 9.96M117.316 92l-20.79 7.97M91.586 94.848l-4.367 27.484M87.22 122.332l21.62 17.523M93.504 119l17.297 14.016M87.22 122.332l-25.986 9.96M61.234 132.293l-12.992 4.984" stroke-width="1.2" stroke="#000" stroke-miterlimit="10" fill="none"/><path d="M48.242 137.277l-12.992 4.98" stroke-width="1.2" stroke="#00f" stroke-miterlimit="10" fill="none"/><path d="M56.293 127.176l-10.395 3.984" stroke-width="1.2" stroke="#000" stroke-miterlimit="10" fill="none"/><path d="M45.898 131.16l-10.394 3.985" stroke-width="1.2" stroke="#00f" stroke-miterlimit="10" fill="none"/><path d="M60.98 139.406l-10.394 3.985" stroke-width="1.2" stroke="#000" stroke-miterlimit="10" fill="none"/><path d="M50.586 143.39l-10.395 3.985" stroke-width="1.2" stroke="#00f" stroke-miterlimit="10" fill="none"/><path d="M27.25 135.758h8v13h-8zm0 0" fill="#fff"/><use xlink:href="#a" x="27.25" y="145.659" fill="#00f"/><path d="M230.03 145.02l2.185-13.743" stroke-width="1.2" stroke="#00f" stroke-miterlimit="10" fill="none"/><path d="M232.215 131.277l2.183-13.742" stroke-width="1.2" stroke="#000" stroke-miterlimit="10" fill="none"/><path d="M222.03 138.52h17v13h-17zm0 0" fill="#fff"/><g fill="#00f"><use xlink:href="#a" x="222.031" y="148.421"/><use xlink:href="#b" x="230.015" y="148.421"/></g><path d="M234.398 117.535l25.985-9.96M234.652 110.426l20.79-7.97M212.78 100.012l21.618 17.523M260.383 107.574l4.367-27.484M264.75 80.09l-10.81-8.762" stroke-width="1.2" stroke="#000" stroke-miterlimit="10" fill="none"/><path d="M253.94 71.328l-10.81-8.762" stroke-width="1.2" stroke="#00f" stroke-miterlimit="10" fill="none"/><path d="M258.465 83.426l-8.65-7.012" stroke-width="1.2" stroke="#000" stroke-miterlimit="10" fill="none"/><path d="M249.816 76.414l-8.648-7.008M243.13 62.566l-12.993 4.98" stroke-width="1.2" stroke="#00f" stroke-miterlimit="10" fill="none"/><path d="M230.137 67.547l-12.992 4.98" stroke-width="1.2" stroke="#000" stroke-miterlimit="10" fill="none"/><path d="M239.13 56.066h8v13h-8zm0 0" fill="#fff"/><use xlink:href="#a" x="239.129" y="65.968" fill="#00f"/><path d="M217.145 72.527l-4.364 27.485M223.176 76.305l-3.492 21.984" stroke-width="1.2" stroke="#000" stroke-miterlimit="10" fill="none"/></g></svg>
